resources/svg/arrows-shrink.svg

<svg xmlns="http://www.w3.org/2000/svg" fill="none" viewBox="0 0 48 48"><path fill="currentColor" d="M40.6744 23.7416C42.6713 23.5618 43.5724 21.4904 42.3163 19.9277C41.4994 18.9115 40.4238 17.6486 39.0237 16.1265C42.5239 12.3384 44.6901 9.58242 45.8857 7.94645C46.6919 6.84328 46.8 5.4561 45.9154 4.41473C45.6136 4.05936 45.2362 3.64844 44.765 3.18009C44.3204 2.73822 43.9305 2.38107 43.5923 2.09262C42.5458 1.20017 41.159 1.32544 40.0606 2.15316C38.4429 3.37217 35.7163 5.55615 31.9372 9.02383C30.3546 7.56109 29.0554 6.45349 28.02 5.62342C26.473 4.38313 24.4421 5.27427 24.2614 7.24884C23.875 11.4707 23.9685 16.2647 24.1779 20.1753C24.2834 22.1453 25.8514 23.7132 27.8214 23.8186C31.7093 24.0267 36.4705 24.1203 40.6744 23.7416Z"></path><path fill="currentColor" d="M7.32361 24.2583C5.32668 24.4381 4.42556 26.5095 5.68173 28.0722C6.49856 29.0884 7.5741 30.3511 8.97398 31.8731C5.47399 35.6609 3.30795 38.4168 2.11238 40.0527C1.30615 41.1559 1.19804 42.5431 2.08266 43.5844C2.38451 43.9398 2.76186 44.3507 3.23301 44.819C3.67751 45.2608 4.06738 45.6179 4.40559 45.9063C5.4521 46.7988 6.83886 46.6735 7.93729 45.8458C9.55492 44.6268 12.2814 42.4429 16.0603 38.9755C17.6427 40.4381 18.9418 41.5456 19.9771 42.3756C21.5241 43.6159 23.555 42.7248 23.7357 40.7502C24.122 36.5287 24.0286 31.735 23.8192 27.8246C23.7137 25.8546 22.1457 24.2867 20.1757 24.1813C16.288 23.9732 11.5272 23.8797 7.32361 24.2583Z"></path></svg>

<svg xmlns="http://www.w3.org/2000/svg" fill="none" viewBox="0 0 48 48"><path fill="currentColor" d="M40.674 23.742c1.997-.18 2.898-2.252 1.642-3.814a75.944 75.944 0 0 0-3.292-3.802c3.5-3.788 5.666-6.544 6.862-8.18.806-1.103.914-2.49.03-3.531-.302-.356-.68-.767-1.151-1.235a21.09 21.09 0 0 0-1.173-1.087c-1.046-.893-2.433-.768-3.531.06-1.618 1.22-4.345 3.403-8.124 6.87a74.276 74.276 0 0 0-3.917-3.4c-1.547-1.24-3.578-.349-3.759 1.626-.386 4.222-.293 9.016-.083 12.926a3.85 3.85 0 0 0 3.643 3.644c3.888.208 8.65.301 12.853-.077Zm-33.35.516c-1.997.18-2.898 2.252-1.642 3.814a75.957 75.957 0 0 0 3.292 3.801c-3.5 3.788-5.666 6.544-6.862 8.18-.806 1.103-.914 2.49-.03 3.531.303.356.68.767 1.151 1.235.445.442.834.799 1.173 1.087 1.046.893 2.433.767 3.531-.06 1.618-1.22 4.344-3.403 8.123-6.87a74.256 74.256 0 0 0 3.917 3.4c1.547 1.24 3.578.349 3.759-1.626.386-4.221.293-9.015.083-12.925a3.85 3.85 0 0 0-3.643-3.644c-3.888-.208-8.649-.301-12.852.077Z"/></svg>
